X:1
T:Christ at Bethlehem
T:Christ at Bethlehem
T:Willilam Smyth Babcock Mathews
T:Willilam Smyth Babcock Mathews, 1878
T:Public Domain Courtesy of the Cyber Hymnal™
C:Willilam Smyth Babcock Mathews
Z:Public Domain
Z:Courtesy of the Cyber Hymnal™
%%score ( 1 2 ) ( 3 4 )
L:1/8
Q:1/4=110
M:4/4
K:Db
V:1 treble 
V:2 treble 
V:3 bass 
V:4 bass 
V:1
 A2 F2 F2 A2 | d2 A2 A4 | B2 G2 G2 B2 | A2 F2 E4 | A2 F2 F2 A2 | d2 B2 B4 | A2 F2 F2 E2 | %7
w: 1.~Long a- go on|Christ- mas night,|Shep- herds saw the|heav’n- ly light,|Heard the song of|an- gels bright,|Christ was born at|
w: 2.~Quick to Beth- lehem,|they, to see|What the an- gels’|joy could be;|Lo! for love of|you and me,|Christ was born at|
w: 3.~Come with them to|sac- red stall,|On our knees with|wise men fall;|Sav- ior, king and|Lord of all,|Christ was born at|
 D4 D2 z2 ||"^Refrain" [GB]2 [Bd]2 [Bd]4 | [FA]2 [Fd]2 [Fd]4 | [CE]2 ([CE][DF]) [EG]2 [FA]2 | %11
w: Beth- lehem.||||
w: Beth- lehem.|Christ our king,|Christ our king|Ev- ery * voice His|
w: Beth- lehem.||||
 [GB]2 [FA]2 [FA]4 | [FA]2 [DF]2 [DF]2 [FA]2 | [GB]2 [Gd]2 [Gd]4 | [FA]2 [DF]2 [DF]2 [CE]2 | %15
w: ||||
w: praise shall sing;|Je- sus Christ our|Lord and king,|Came that day to|
w: ||||
 D4 D2 z2 |] %16
w: |
w: Beth- lehem.|
w: |
V:2
 x8 | x8 | x8 | x8 | x8 | x8 | x8 | x8 || x8 | x8 | x8 | x8 | x8 | x8 | x8 | D4 D2 x2 |] %16
V:3
 [D,F,A,]4 [F,A,]4 | [D,F,A,]4 [F,A,]4 | [G,B,]4 [G,B,]4 | [F,A,]4 [E,A,C]4 | [D,F,A,]4 [F,A,]4 | %5
 [G,B,D]4 [G,B,D]4 | [F,A,]4 [G,A,]4 | [D,F,A,]8 || G,2 G,2 G,4 | [D,A,]2 [D,A,]2 [D,A,]4 | %10
 [A,,A,]2 [A,,A,]2 [A,,A,]2 [A,,A,]2 | [D,G,]2 [D,A,]2 [D,D]4 | [D,D]2 [D,A,]2 [D,A,]2 [D,D]2 | %13
 [G,D]2 [G,B,]2 [G,B,]4 | [A,D]2 A,2 [A,,A,]2 [A,,G,]2 | [D,F,]4 [D,F,]2 z2 |] %16
V:4
 x8 | x8 | G,,8 | A,,8 | x8 | A,,8 | A,,8 | x8 || G,2 G,2 G,4 | x8 | x8 | x8 | x8 | x8 | %14
 x2 A,2 x4 | x8 |] %16

